!!!!SEGMENT: pl-gd--ee-2628--006-006_stabile-annibale--il-terzo-libro-de-madrigali-a-cinque-voci-di-martir-in-martir.krn
!!!cenid: 15xx:1073
!!!COM: Stabile, Annibale
!!!COM-rismid: pe30009662
!!!CDT: ~1535-1595/04
!!!CNT: Italian
!!!GTL: Il terzo libro de madrigali a cinque voci
!!!OTL: Di martir in martir
!!!OMV: 006
!!!PDT: 1585
!!!AGN:
!!!SMS-siglum: PL-GD
!!!SMS-shelfmark: Ee 2628
!!!SMS-shelfwork: 006-006 G
!!!SMS-variant:
!!!SMS-altvar:
!!!NIFC-rismid: 990060530
!!!URL-scan: https://repozytorium.nifc.pl/islandora/object/pl-gd%3A66139/datastream/PDF/view
!!!ONB-nifc: UWAGA: Canto: s. 90-101, Tenore: s. 246-257, Basso: s. 402-413, Quinto: s. 724-735. Dla głosu Alto proszę skorzystać z https://pbc.gda.pl/dlibra/publication/87582/edition/79411/content, str. 25-48. Uwaga: utwory podzielone wg spisu treści dostępnych na końcu ksiąg – proszę sprawdzać sąsiednie tytuły. Głos Quinto proszę umieszczać wg ambitusu (może się różnić w zależności od utworu).
!!!AIN: 1 alto 1 bass 1 soprn 1 tenor   1 vox
!!!key: F
**kern	**text	**kern	**text	**kern	**text	**kern	**text	**kern	**text
*part5	*part5	*part4	*part4	*part3	*part3	*part2	*part2	*part1	*part1
*staff5	*staff5	*staff4	*staff4	*staff3	*staff3	*staff2	*staff2	*staff1	*staff1
*I"BASSO	*	*I"TENORE	*	*I"QVINTO	*	*I"ALTO	*	*I"CANTO	*
*I'B	*	*I'T	*	*I'V	*	*I'A	*	*I'S	*
*ICvox	*	*ICvox	*	*ICvox	*	*ICvox	*	*ICvox	*
*Ibass	*	*Itenor  	*	*Ivox	*	*Ialto	*	*Isoprn	*
*clefF3	*	*clefC3	*	*clefC3	*	*clefC2	*	*clefG2	*
*k[b-]	*	*k[b-]	*	*k[b-]	*	*k[b-]	*	*k[b-]	*
*F:	*	*F:	*	*F:	*	*F:	*	*F:	*
*M2/1	*	*M2/1	*	*M2/1	*	*M2/1	*	*M2/1	*
*met(C)	*	*met(C)	*	*met(C)	*	*met(C)	*	*met(C)	*
=1-	=1-	=1-	=1-	=1-	=1-	=1-	=1-	=1-	=1-
!LO:TX:t=P:problem:podwójnie zapisany znak przykluczowy: BB- B-	!	!	!	!	!	!	!	!	!
0r	.	00r	.	0r	.	2r	.	2.a/	DI
.	.	.	.	.	.	2.f\	DI	.	.
.	.	.	.	.	.	.	.	4dd\	mar-
.	.	.	.	.	.	.	.	2cc\	-tir
.	.	.	.	.	.	4c/	mar-	.	.
.	.	.	.	.	.	2d/	-tir	4b-/	in
.	.	.	.	.	.	.	.	4a/	mar-
=2-	=2-	=2-	=2-	=2-	=2-	=2-	=2-	=2-	=2-
1r	.	.	.	1r	.	4e\	in	4g/	-tir
.	.	.	.	.	.	4f\	mar-	4f/	di
.	.	.	.	.	.	4g\	-tir	4e/	pe-
.	.	.	.	.	.	4a\	di	4f/	-na in
2r	.	.	.	2.c/	DI	4g\	pe-	2e/	pe-
.	.	.	.	.	.	4g\	-na in	.	.
2.F/	DI	.	.	.	.	4.a\	pe-	4f/	-na
.	.	.	.	4d\	mar-	.	.	4f/	di
.	.	.	.	.	.	8g\	.	.	.
*	*	*	*	*	*	*custos:f	*	*custos:a	*
!	!	!	!	!	!	!LO:LB:g=original	!	!LO:LB:g=original	!
=3-	=3-	=3-	=3-	=3-	=3-	=3-	=3-	=3-	=3-
.	.	2.A/	DI	2c/	-tir	4f\	.	4a/	pe-
4C/	mar-	.	.	.	.	4e\	.	4g/	-na in
2D/	-tir	.	.	4F/	in	2d/	-na	2f/	pe-
.	.	4d\	mar-	4f\	mar-	.	.	.	.
4E/	in	2c/	-tir	2e\	-tir	1r	.	4g/	-na
4F/	mar-	.	.	.	.	.	.	4a/	di
4G\	-tir	4B-/	in	2.d\	di	.	.	4b-\	pe-
4A\	di	4A/	mar-	.	.	.	.	4cc\	-na in
=4-	=4-	=4-	=4-	=4-	=4-	=4-	=4-	=4-	=4-
4B-\	pe-	4G/	-tir	.	.	0r	.	4dd\	pe-
4c\	-na in	4A/	di	2a\	pe-	.	.	2cc\	.
*custos:d	*	*	*	*	*	*	*	*	*
!LO:LB:g=original	!	!	!	!	!	!	!	!	!
2d\	pe-	4F/	pe-	.	.	.	.	.	.
!	!	!	!	!	!	!	!	!LO:N:acc=#	!
.	.	4G/	-na in	8g\	.	.	.	4bn/	.
.	.	.	.	8f\	.	.	.	.	.
*	*	*	*	*custos:e	*	*	*	*	*
!	!	!F	!	!LO:LB:g=original	!	!	!	!	!
1c	-na	2A/	pe-	4e\	.	.	.	2cc\	-na
.	.	.	.	4e\	-na in	.	.	.	.
*	*	*custos:F	*	*	*	*	*	*	*
!	!	!LO:LB:g=original	!	!	!	!	!	!	!
.	.	4F/	-na	8f\	pe-	.	.	4r	.
.	.	.	.	8g\	.	.	.	.	.
.	.	4F/	Per	8a\	.	.	.	4ff\	Per
.	.	.	.	8f\	.	.	.	.	.
=5-	=5-	=5-	=5-	=5-	=5-	=5-	=5-	=5-	=5-
1r	.	4c/	dar-	4g\	.	1r	.	2ee\	dar-
.	.	4A/	-mi a-	4c/	-na	.	.	.	.
*	*	*	*	*	*	*	*	*custos:dd	*
!	!	!	!	!	!	!	!	!LO:LB:g=original	!
.	.	4B-/	-cer-	2r	.	.	.	4dd\	-mi a-
.	.	4c/	-ba	.	.	.	.	2cc\	-cer-
2r	.	2d\	mor-	4r	.	2f\	Per	.	.
.	.	.	.	4f\	Per	.	.	4b-y/	-ba
2C/	Per	2c/	-te	2e\	dar-	4g\	dar-	4cc\	mor-
.	.	.	.	.	.	4a\	-mi a-	4cc\	-te
=6-	=6-	=6-	=6-	=6-	=6-	=6-	=6-	=6-	=6-
!	!	!	!	!	!	!LO:N:acc=#	!	!	!
4G\	dar-	4r	.	4d\	-mi a-	4bn\	-cer-	0r	.
*	*	*	*ij	*	*	*	*	*	*
4E/	-mi a-	4g\	Per	2c/	-cer-	4cc\	-ba	.	.
4F/	-cder-	4a\	dar-	.	.	2dd\	mor-	.	.
!	!	!	!	!LO:N:acc=#	!	!	!	!	!
4G\	-ba	4g\	-mi a-	4Bn/	-ba	.	.	.	.
*	*	*	*	*custos:c	*	*	*	*	*
!	!	!	!	!LO:LB:g=original	!	!c	!	!	!
4.A\	mor-	4e\	-cer-	4c/	mor-	1cc	-te	.	.
.	.	4a\	-ba	4.f\	.	.	.	.	.
8B-\	.	.	.	.	.	.	.	.	.
*	*	*custos:g	*	*	*	*	*	*	*
!	!	!LO:LB:g=original	!	!	!	!	!	!	!
2c\	.	2g\	mor-	.	.	.	.	.	.
.	.	.	.	8e\	.	.	.	.	.
.	.	.	.	4e\	.	.	.	.	.
*	*	*	*	*	*	*custos:c	*	*	*ij
!	!	!	!	!	!	!LO:LB:g=original	!	!	!
=7-	=7-	=7-	=7-	=7-	=7-	=7-	=7-	=7-	=7-
2F\	-te	4a\	-te	4f\	-te	2r	.	2ff\	Per
*	*	*	*Xij	*	*ij	*	*	*	*
.	.	4a\	Per	4F/	Per	.	.	.	.
*custos:C	*	*	*	*	*	*	*ij	*	*
!LO:LB:g=original	!	!	!	!	!	!	!	!	!
1r	.	4g\	dar-	4c/	dar-	4r	.	2ee\	dar
.	.	4a\	-mi a-	4A/	-mi a-	4c/	Per	.	.
.	.	4d\	-cer-	4B-y/	-cer-	4g\	dar-	4dd\	mi a-
.	.	4a\	-ba	4c/	-ba	4e\	-mi a-	2cc\	-cer-
!LO:N:vis=0	!	!	!	!	!	!	!	!	!
1.r	.	4a\	mor-	2d\	mor-	4f\	-cer-	.	.
.	.	8g\	.	.	.	4g\	-ba	4b-\	-ba
.	.	8f\	.	.	.	.	.	.	.
=8-	=8-	=8-	=8-	=8-	=8-	=8-	=8-	=8-	=8-
.	.	4e\	.	1c	-te	2a\	mor-	2cc\	mor-
.	.	2f\	.	.	.	.	.	.	.
.	.	.	.	.	.	2g\	-te	2cc\	-te
.	.	4e\	-te	.	.	.	.	.	.
*col	*	*col	*	*col	*Xij	*col	*Xij	*col	*Xij
3C/	Per	3c/	Per	3G/	Per	3e/	Per	3cc\	Per
3C/	te-	3c/	te-	3G/	te-	3e/	te-	3g/	te-
3F/	-ne-	3A/	-ne-	3F/	-ne-	3c/	-ne-	3a/	-ne-
=9-	=9-	=9-	=9-	=9-	=9-	=9-	=9-	=9-	=9-
3%2BB-	-bro-	3%2B-	-bro-	3%2F	-bro-	3%2d	-bro-	3%2f	-bro-
3F/	-ſi a-	3A/	-si a-	3F/	-ſi a-	3c/	-ſi a-	3f/	-ſi a-
*Xcol	*	*Xcol	*	*Xcol	*	*Xcol	*	*Xcol	*
2C/	-biſ-	2G/	-bis-	1c	-biſ-	2e/	-biſ-	2g/	-biſ-
*	*	*custos:F	*	*	*	*	*	*	*
!	!	!LO:LB:g=original	!	!	!	!	!	!f	!
2F/	-si A-	4F/	-si A-	.	.	2f\	-si	2a/	-si a-
.	.	2f\	-mor	.	.	.	.	.	.
*	*	*	*	*	*	*	*	*custos:f	*
!	!	!	!	!	!	!	!	!LO:LB:g=original	!
=10-	=10-	=10-	=10-	=10-	=10-	=10-	=10-	=10-	=10-
4D/	-mor	.	.	2B-/	-si a-	0r	.	4f/	-mor
4G\	mi	4e\	mi	.	.	.	.	4g/	mi
*	*	*	*	*custos:a	*	*	*	*	*
!	!	!	!	!LO:LB:g=original	!	!	!	!	!
1F	me-	1f	me-	4A/	-mor	.	.	1a	me-
.	.	.	.	4d\	mi	.	.	.	.
.	.	.	.	2c/	me-	.	.	.	.
2F/	-na	2f\	-na	2c/	-na	.	.	2a/	-na
=11-	=11-	=11-	=11-	=11-	=11-	=11-	=11-	=11-	=11-
*col	*	*	*	*col	*	*col	*	*col	*
3C/	Per	00r	.	3c\	Per	3e/	Per	3g/	Per
3C/	te-	.	.	3c\	te-	3e/	te-	3g/	te-
3F/	-ne-	.	.	3c\	-ne-	3f\	-ne-	3a/	-ne-
3%2BB-	-bro-	.	.	3%2d	-bro-	3%2f	-bro-	3%2b-	-bro-
3AA/	-ſi a-	.	.	3c/	-ſi a-	3f\	-ſi a-	3cc\	-ſi a-
*Xcol	*	*	*	*Xcol	*	*Xcol	*	*Xcol	*
=12-	=12-	=12-	=12-	=12-	=12-	=12-	=12-	=12-	=12-
2BB-/	-biſ-	.	.	2B-/	-biſ-	2.f\	-biſ-	2dd\	-biſ-
*custos:F	*	*	*	*	*	*	*	*	*
!LO:LB:g=original	!	!	!	!	!	!	!	!	!
2F/	-si A-	.	.	2A/	-si A-	.	.	2cc\	-si
.	.	.	.	.	.	4f\	-si A-	.	.
4D/	-mor	.	.	4d\	-mor	4f\	-mor	4r	.
4G\	mi	.	.	4B-/	mi	4g\	mi	4b-/	A-
2F/	me-	.	.	2f\	me-	2a\	me-	4a/	-mor
.	.	.	.	.	.	.	.	4dd\	mi
=13-	=13-	=13-	=13-	=13-	=13-	=13-	=13-	=13-	=13-
4F/	-na	2r	.	4f\	-na	2a\	-na	8cc\	me-
.	.	.	.	.	.	.	.	8b-\	.
*	*ij	*	*	*	*	*	*	*	*
4F/	A-	.	.	4c/	A-	.	.	8a/	.
.	.	.	.	.	.	.	.	8g/	.
4D/	-mor	2B-/	A-	4.d\	-mor	1r	.	4f/	.
4G\	mi	.	.	.	.	.	.	4g/	.
.	.	.	.	8e\	mi	.	.	.	.
*	*	*	*	*custos:f	*	*	*	*custos:a	*
!	!	!	!	!LO:LB:g=original	!	!	!	!LO:LB:g=original	!
1F	me-	4A/	-mor	1f	me-	.	.	1a	.
.	.	4d\	mi	.	.	.	.	.	.
.	.	1c\	me-	.	.	2r	.	.	.
=14-	=14-	=14-	=14-	=14-	=14-	=14-	=14-	=14-	=14-
2F/	-na	.	.	2f\	-na	2r	.	2a/	-na
*	*Xij	*	*	*	*	*	*	*	*
2C/	et	2c/	-na	4r	.	2g\	et	2ee\	et
.	.	.	.	4e\	et	.	.	.	.
4.F\	per	2r	.	2.c/	per	2a\	per	2ff\	per
8G\	.	.	.	.	.	.	.	.	.
4A\	.	2e\	et	.	.	2cc\	mia	2.ee\	mia
4c\	mia	.	.	4A/	mia	.	.	.	.
=15-	=15-	=15-	=15-	=15-	=15-	=15-	=15-	=15-	=15-
2d\	tri-	2f\	per	1r	.	4b-y\	triſ-	.	.
.	.	.	.	.	.	4a\	-ta	2dd\	triſ-
2A\	-ſta	2.e\	mia	.	.	1a	for-	.	.
.	.	.	.	.	.	.	.	4cc\	-ta
2D/	ſor-	.	.	2.A/	tri-	.	.	2ff\	ſor-
.	.	2d\	tris-	.	.	.	.	.	.
2A\	-te	.	.	.	.	2a\	-te	2ee\	-te
.	.	4c/	-ta	4a\	-ſta	.	.	.	.
*custos:d	*	*	*	*	*	*	*	*	*
!LO:LB:g=original	!	!	!	!	!	!	!	!	!
=16-	=16-	=16-	=16-	=16-	=16-	=16-	=16-	=16-	=16-
4r	.	2B-/	sor-	2g\	ſor-	2d/	E	1r	.
4d\	E	.	.	.	.	.	.	.	.
*	*	*	*	*	*	*custos:e	*	*	*
!	!	!d	!	!	!	!LO:LB:g=original	!	!	!
4.c\	ſpen-	2A/	-te	2a\	-te	4.e/	ſpen-	.	.
8c\	-ta o-	.	.	.	.	8e/	-ta o-	.	.
*	*	*custos:d	*	*	*	*	*	*	*
!	!	!LO:LB:g=original	!	!	!	!	!	!	!
4c\	-gni	1r	.	2r	.	4e/	-gni	2r	.
4A\	pie-	.	.	.	.	4f#X\	pie-	.	.
2B-\	-ta-	.	.	2d\	E	2g\	-ta-	4r	.
.	.	.	.	.	.	.	.	4dd\	E
=17-	=17-	=17-	=17-	=17-	=17-	=17-	=17-	=17-	=17-
1A	-de	1r	.	4.e\	ſpen-	2a\	-de	4.cc\	ſpen-
.	.	.	.	8e\	-ta o-	.	.	8cc\	-ta o-
.	.	.	.	4e\	-gni	1r	.	4cc\	-gni
.	.	.	.	4f#X\	pie-	.	.	4a/	pie-
*	*ij	*	*	*	*	*	*	*	*
2G\	E	4r	.	2g\	-ta-	.	.	2b-/	-ta-
.	.	4d\	E	.	.	.	.	.	.
4.d\	ſpen-	4.f\	spen-	2a\	-de	2r	.	2a/	-de
8d\	-ta o-	8f\	-ta o-	.	.	.	.	.	.
=18-	=18-	=18-	=18-	=18-	=18-	=18-	=18-	=18-	=18-
4d\	-gni	4f\	-gni	0r	.	4r	.	0r	.
*	*	*	*	*	*	*	*ij	*	*
!LO:N:acc=#	!	!	!	!	!	!	!	!	!
4Bn\	pie-	4g\	pie-	.	.	4d/	E	.	.
1c	-ta-	4.e\	-ta	.	.	4.g\	spen-	.	.
.	.	8d\	.	.	.	8g\	-ta o-	.	.
.	.	4e\	.	.	.	4g\	-gni	.	.
.	.	2f\	.	.	.	4a\	pie-	.	.
2C/	-de	.	.	.	.	2g\	-ta-	.	.
.	.	4e\	.	.	.	.	.	.	.
*	*Xij	*	*	*custos:f	*	*	*	*	*
!	!	!	!	!LO:LB:g=original	!	!	!	!	!
=19-	=19-	=19-	=19-	=19-	=19-	=19-	=19-	=19-	=19-
4r	.	2f\	de	4r	.	2a\	-de	1r	.
4F/	Ne i	.	.	4fny\	Ne i	.	.	.	.
4A\	dol-	1r	.	4f\	dol-	2r	.	.	.
4c\	-ci	.	.	4e\	-ci	.	.	.	.
*custos:B	*	*	*	*	*	*	*Xij	*	*
!LO:LB:g=original	!	!	!	!	!	!	!	!	!
!LO:N:acc=#	!	!	!	!	!	!	!	!	!
4.Bn\	lu-	.	.	4.d\	lu-	4r	.	4r	.
.	.	.	.	.	.	4g\	Ne i	4dd\	Ne i
8B\	-mi	.	.	8d\	-mi	.	.	.	.
*	*	*	*	*	*	*	*	*custos:ee	*
!	!	!	!	!	!	!	!	!LO:LB:g=original	!
4c\	dell'-	2r	.	4c/	dell'	4g\	dol-	4ee\	dol-
4A\	-al-	.	.	4c/	al-	4a\	-ci	4ff\	-ci
*	*	*	*	*	*	*custos:b	*	*	*
!	!	!	!	!	!	!LO:LB:g=original	!	!	!
=20-	=20-	=20-	=20-	=20-	=20-	=20-	=20-	=20-	=20-
!	!	!	!	!	!	!LO:N:acc=#	!	!	!
2G\	-trui	1r	.	4d\	-trui	4.bn\	lu-	4.gg\	lu-
.	.	.	.	4d\	bel-	.	.	.	.
.	.	.	.	.	.	8b\	-mi	8gg\	-mi
2C/	bel-	.	.	2g\	-ta-	4cc\	dell'-	4ee\	dell'-
.	.	.	.	.	.	4cc\	-al-	4cc\	-al-
!	!	!	!	!	!	!LO:N:acc=#	!	!	!
2G\	-ta-	2r	.	1g	-de	4bn\	-trui	4dd\	-trui
.	.	.	.	.	.	4cc\	bel-	4ee\	bel-
!	!	!	!	!	!	!LO:N:acc=#	!	!	!
4G\	-de	2d\	Ne i	.	.	2bn\	-ta-	2dd\	-ta-
4G\	Ne i	.	.	.	.	.	.	.	.
=21-	=21-	=21-	=21-	=21-	=21-	=21-	=21-	=21-	=21-
4A\	dol-	4f\	dol-	2r	.	2cc\	-de	2cc\	-de
4c\	-ci	4e\	-ci	.	.	.	.	.	.
!LO:N:acc=#	!	!	!	!	!	!	!	!	!
4.Bn\	lu-	4.d\	lu-	2G/	Ne i	1r	.	1r	.
8B\	-mi	8e\	-mi	.	.	.	.	.	.
*	*	*custos:f	*	*	*	*	*	*	*ij
!	!	!LO:LB:g=original	!	!	!	!	!	!	!
4c\	dell'	4f\	dell'-	4A/	dol-	.	.	.	.
4C/	al-	4e\	-tru-	4c/	-ci	.	.	.	.
!	!	!	!	!LO:N:acc=#	!	!	!	!	!
2G\	-trui	2d\	-i	4.Bn/	lu-	2r	.	4r	.
.	.	.	.	.	.	.	.	4dd\	Ne i
.	.	.	.	8B/	-mi	.	.	.	.
=22-	=22-	=22-	=22-	=22-	=22-	=22-	=22-	=22-	=22-
2A\	bel-	4a\	bel-	4c/	dell'-	1r	.	4ff\	dol-
.	.	4.a\	-ta-	4c/	-al-	.	.	4ee\	-ci
*	*	*	*	*custos:d	*	*	*	*	*
!A	!	!	!	!LO:LB:g=original	!	!	!	!	!
2B-y\	-ta-	.	.	4.d\	-trui	.	.	4.dd\	lu-
.	.	8g\	.	.	.	.	.	.	.
.	.	4g\	.	.	.	.	.	.	.
.	.	.	.	8e\	.	.	.	8dd\	-mi
*custos:A	*	*	*	*	*	*	*	*	*
!LO:LB:g=original	!	!	!	!	!	!	!	!	!
2A\	-de	2a\	-de	4f\	.	2r	.	4dd\	dell'-
.	.	.	.	4e\	bel-	.	.	4cc\	-al-
*	*	*	*	*	*	*	*	*custos:b-	*
!	!	!	!	!	!	!	!	!LO:LB:g=original	!
2r	.	2r	.	4d\	-ta-	4r	.	4b-/	-trui
.	.	.	.	2f\	.	4d/	Ne i	4a/	bel-
=23-	=23-	=23-	=23-	=23-	=23-	=23-	=23-	=23-	=23-
2r	.	2r	.	.	.	4B-/	dol-	2g/	-ta-
.	.	.	.	4e\	.	4c/	-ci	.	.
2.D/	dell'-	4r	.	2f\	-de	4.d/	lu-	4f/	-de
*	*	*	*	*	*	*	*	*	*Xij
.	.	4d\	Ne i	.	.	.	.	4a/	Ne i
.	.	.	.	.	.	8d/	-mi	.	.
.	.	4f\	dol-	2r	.	4d/	dell'-	4b-/	dol-
4C/	-al-	4e\	-ci	.	.	4e/	-al-	4cc\	-ci
*	*	*	*	*	*	*custos:f	*	*	*
!	!	!	!	!	!	!LO:LB:g=original	!	!	!
1BB-/	-trui	4.d\	lu-	2.B-y/	dell'	1fny\	-trui	4.dd\	lu-
.	.	8d\	-mi	.	.	.	.	8dd\	-mi
=24-	=24-	=24-	=24-	=24-	=24-	=24-	=24-	=24-	=24-
.	.	4d\	dell'-	.	.	.	.	4ff\	dell'-
.	.	4c/	-al-	4c/	al-	.	.	4ee\	-al-
2BB-/	bel-	2.B-/	-trui	8d\	-trui	2g\	bel-	4dd\	-trui
.	.	.	.	8c\	.	.	.	.	.
.	.	.	.	8B-/	.	.	.	4dd\	bel-
.	.	.	.	8A/	.	.	.	.	.
1C	-ta-	.	.	4G/	.	4e/	-ta-	1cc	-ta-
.	.	4A/	bel-	4c/	bel-	4.f\	.	.	.
.	.	2G/	-ta-	2c/	-ta-	.	.	.	.
.	.	.	.	.	.	8e\	.	.	.
.	.	.	.	.	.	4e/	.	.	.
=25-	=25-	=25-	=25-	=25-	=25-	=25-	=25-	=25-	=25-
00F/	-de.	00F	-de.	00c/	-de.	00f	-de.	00a	-de.
==	==	==	==	==	==	==	==	==	==
*-	*-	*-	*-	*-	*-	*-	*-	*-	*-
!!!system-decoration: [(s1,s2,s3,s4,s5)]
!!!ENC: Berenika Jozajtis
!!!END: 2022-07-10
!!!ENC: Jan Barakat
!!!END: 2022-08-02
